X:1
T: Cahill's Courtship
C:
R:Reel
Q: 232
K:D
M:4/4
L:1/8
A,2|D2 FD ED CA,|D2 FD dB AF|D2 FD ED B,B|AG FE DG FE|D2 FD ED CA,|D2 FD dB AF|D2 FD ED B,B|AG FE D2 ((3ABc)|
dA FA BA FA|dA FD ED B,A,|dA FA BA FB|AG FE D2 ((3ABc)|dA FA BA FA|dA FD ED B,A,|DE FG Ad cB|AG FE D2 ((3ABc)|
dA FA BA FA|dA FD ED B,A,|dA FA BA FB|AG FE D2 ((3ABc)|dA FA BA FA|dA FD ED B,A,|DE FG Ad cB|AG FE D2 A,2|
D2 FD ED CA,|D2 FD dB AF|D2 FD ED B,B|AG FE DG FE|D2 FD ED CA,|D2 FD dB AF|D2 FD ED B,B|AG FE D2||
